X:114
T:Innisheer
M:3/4
R:Waltz
K:G
D2|"G"B3 A B<d|"Bm"B4 D2|"C"E3 B AB|"D"D4 D2|"G"B3 A B<d|"Bm"B4 d2|"C"G3B "D"A/G/F|1"G"G4:|2"G"G3|!
|:"C"A Bd|"G"e3 f ed|"C"B4 d2|gf ed Bd|"Am"e4 Bd|e3 "G"f "Em"ed|"D"B4 d2|"G"E3 B A/G/F|G3:|

